X:1032
T:no name
R:reel
S:Anna Lindblad
O:Quebec
Z:id:hn-reel-1032
M:C|
L:1/8
K:D
F2AF BFAF | F2BF AF~F2 | F2AF FBAF | GBAG FDD2 |
F2AF BFAF | F2BF AF~F2 | F2AF FBAB |1 dfec dBAG :|2 dfec dBAB ||
|: d3e fedf | eAA^G A2AB | =c2AB cdeg | (3fga e^c dBAB |
d3e fedf | eAA^G A2AB | =c2AB cdeg |1 (3fga e^c dBAB :|2 f2e^c dBAG ||

